brandFactory_export/2.Regular/Dato_M compartidos_2Regular.svg

<?xml version="1.0" encoding="UTF-8"?>
<svg width="24px" height="24px" viewBox="0 0 24 24" version="1.1" xmlns="http://www.w3.org/2000/svg" xmlns:xlink="http://www.w3.org/1999/xlink">
    <title>2.Regular/Dato_M compartidos_2Regular</title>
    <g id="Symbols" stroke="none" stroke-width="1" fill="none" fill-rule="evenodd">
        <g id="2.Regular/Dato_M-compartidos_2Regular" fill="#5CB615" fill-rule="nonzero">
            <path d="M7.90252101,3.02689076 C9.57647059,3.02689076 10.5008403,3.94789916 10.5008403,5.62521008 L10.5001681,7.95189076 L11.9764706,7.9512605 L11.9663866,7.26218487 C11.9630252,7.07731092 12.0268908,6.9092437 12.1445378,6.79159664 C12.2554622,6.68067227 12.4033613,6.62016807 12.5579832,6.62016807 C12.6957983,6.62016807 12.8336134,6.66722689 12.9546218,6.76134454 L13.5681681,7.22089076 C13.9975948,6.61544725 14.72,6.31092437 15.7176471,6.31092437 L21.0016807,6.31092437 C21.8588235,6.31092437 22.4907563,6.52605042 22.9344538,6.96302521 C23.3815126,7.40672269 23.6,8.04201681 23.6,8.90588235 L23.6,18.7579832 C23.6,20.4588235 22.702521,21.3563025 21.0016807,21.3563025 L15.7176471,21.3563025 C14.0436975,21.3563025 13.1193277,20.4352941 13.1193277,18.7579832 L13.1193277,16.492437 C13.1193277,16.4545776 13.1224994,16.4174231 13.1285902,16.381226 L11.7008403,16.3882353 L11.687395,17.1344538 C11.6806723,17.4907563 11.4252101,17.7630252 11.0890756,17.7630252 C10.9512605,17.7630252 10.8134454,17.7159664 10.692437,17.6252101 L10.0631194,17.156304 C10.0590014,17.1625123 10.0547685,17.1686751 10.0504202,17.1747899 C9.61344538,17.7764706 8.91092437,18.0722689 7.90588235,18.0722689 L2.6184874,18.0722689 C1.76134454,18.0722689 1.12941177,17.8571429 0.685714286,17.4201681 C0.238655463,16.9731092 0.0201680677,16.3378151 0.0201680677,15.4739496 L0.0201680677,5.62521008 C0.0201680677,3.92436975 0.917647059,3.02689076 2.6184874,3.02689076 L7.90252101,3.02689076 Z M20.9983193,7.65210084 L15.7176471,7.65210084 C14.9026611,7.65210084 14.7143499,7.91141457 14.6438619,8.02769413 L16.0571429,9.08403361 C16.2352941,9.21848739 16.3361345,9.41680672 16.3361345,9.62857143 C16.3361345,9.84033613 16.2319328,10.0386555 16.0537815,10.1731092 L14.3564094,11.4365274 C14.4243433,11.5414951 14.4638655,11.6663562 14.4638655,11.8 L14.4631681,13.0868908 L14.9647059,13.087395 C15.2067227,13.0672269 15.4386555,13.1546218 15.610084,13.3260504 C15.7613445,13.4806723 15.8453782,13.6890756 15.8420168,13.897479 L15.8453782,15.5042017 C15.8621849,15.7260504 15.7915966,15.9411765 15.6470588,16.1058824 C15.4890756,16.2840336 15.2605042,16.3848739 15.0218487,16.3714286 L14.4533703,16.3741342 C14.4602653,16.4125648 14.4638655,16.4521008 14.4638655,16.492437 L14.4638655,18.7579832 C14.4638655,19.6957983 14.7798319,20.0117647 15.7176471,20.0117647 L21.0016807,20.0117647 C21.4789916,20.0117647 21.8084034,19.9210084 21.9865546,19.7428571 C22.1647059,19.5647059 22.2521008,19.2352941 22.2521008,18.7579832 L22.2521008,8.90588235 C22.2521008,7.94453782 21.9596639,7.65210084 20.9983193,7.65210084 Z M18.3596639,18.2302521 C18.7159664,18.2302521 18.9445378,18.4184874 18.9445378,18.8184874 C18.9445378,19.010084 18.8907563,19.1546218 18.7966387,19.2521008 C18.6957983,19.3563025 18.5445378,19.4067227 18.3596639,19.4067227 C18.1747899,19.4067227 18.0235294,19.3563025 17.9226891,19.2521008 C17.8285714,19.1546218 17.7747899,19.0134454 17.7747899,18.8184874 C17.7747899,18.4151261 18.0067227,18.2302521 18.3596639,18.2302521 Z M7.90252101,4.37142857 L2.6184874,4.37142857 C2.14117647,4.37142857 1.81176471,4.46218487 1.63361345,4.64033613 C1.45546219,4.81848739 1.36806723,5.14789916 1.36806723,5.62521008 L1.36806723,15.4773109 C1.36806723,16.4386555 1.6605042,16.7310924 2.62184874,16.7310924 L7.90588235,16.7310924 C8.71260504,16.7310924 8.89747899,16.4756303 8.95798319,16.3915966 L8.98716807,16.3548908 L7.5697479,15.2991597 C7.39159664,15.1680672 7.28739496,14.9663866 7.28739496,14.7546218 C7.28739496,14.5428571 7.38823529,14.3411765 7.56638656,14.210084 L9.29473916,12.9166596 C9.20798656,12.8034166 9.15630252,12.6620728 9.15630252,12.5092437 L9.15616807,11.2448908 L8.60168067,11.2420168 L8.56470588,11.2420168 C8.34285714,11.2420168 8.12773109,11.1445378 7.97647059,10.9731092 C7.83193277,10.8084034 7.76134454,10.5932773 7.77815126,10.3714286 L7.78151261,8.76470588 C7.77815126,8.55630252 7.86218487,8.34789916 8.01344538,8.19327731 C8.18151261,8.01848739 8.41680672,7.93109244 8.65882353,7.95462185 L9.15616807,7.95389076 L9.15630252,5.62521008 C9.15630252,4.68739496 8.84033613,4.37142857 7.90252101,4.37142857 Z M10.6352941,13.1714286 L8.5210084,14.7546218 L10.692437,16.3714286 L10.6957983,16.1159664 C10.702521,15.7159664 11.0319328,15.3865546 11.4319328,15.3831933 L14.8336134,15.3663866 L14.8302521,14.0957983 L11.3680672,14.092437 C11.1697479,14.092437 10.9848739,14.0151261 10.8436975,13.8739496 C10.7058824,13.7327731 10.6285714,13.5445378 10.6319328,13.3462185 L10.6352941,13.1714286 Z M5.2605042,14.9630252 C5.61680672,14.9630252 5.84537815,15.1512605 5.84537815,15.5512605 C5.84537815,15.7428571 5.79159664,15.887395 5.69747899,15.9848739 C5.59663866,16.0890756 5.44537815,16.1394958 5.2605042,16.1394958 C5.07563025,16.1394958 4.92436975,16.0890756 4.82352941,15.9848739 C4.72941177,15.887395 4.67563025,15.7462185 4.67563025,15.5512605 C4.67563025,15.1512605 4.90756303,14.9630252 5.2605042,14.9630252 Z M10.5001681,11.2508908 L10.5001681,12.0128908 L10.6689076,11.887395 C10.789916,11.7966387 10.9277311,11.7495798 11.0655462,11.7495798 C11.2235294,11.7495798 11.3714286,11.810084 11.4789916,11.9210084 C11.5966387,12.0386555 11.6605042,12.2067227 11.6571429,12.3915966 L11.6470588,13.0840336 L13.1191681,13.0848908 L13.1191681,12.3558908 L12.9277311,12.4991597 C12.810084,12.5865546 12.6722689,12.6336134 12.5344538,12.6336134 C12.1983193,12.6336134 11.9394958,12.3613445 11.9361345,12.005042 L11.9226891,11.2588235 L10.5001681,11.2508908 Z M12.9882353,8.04201681 L12.9915966,8.21680672 C12.994958,8.41512605 12.9176471,8.60336134 12.7798319,8.74453782 C12.6420168,8.88571429 12.4537815,8.96302521 12.2554622,8.96302521 L8.79327731,8.96638655 L8.78655462,10.2369748 L12.1882353,10.2537815 C12.5915966,10.2571429 12.9243697,10.5865546 12.9277311,10.989916 L12.9310924,11.2420168 L15.102521,9.62521008 L12.9882353,8.04201681 Z" id="Dato_M-compartidos_2Regular"></path>
        </g>
    </g>
</svg>

<svg width="24" height="24" viewBox="0 0 24 24" xmlns="http://www.w3.org/2000/svg"><path d="M7.903 3.027c1.673 0 2.598.92 2.598 2.598v2.327h1.475l-.01-.69a.641.641 0 01.179-.47.583.583 0 01.413-.172c.138 0 .276.047.397.141l.613.46c.43-.606 1.152-.91 2.15-.91h5.284c.857 0 1.489.215 1.932.652.448.444.666 1.079.666 1.943v9.852c0 1.7-.897 2.598-2.598 2.598h-5.284c-1.674 0-2.599-.92-2.599-2.598v-2.266a.67.67 0 01.01-.11l-1.428.006-.014.746c-.006.357-.262.629-.598.629a.66.66 0 01-.397-.138l-.629-.469a.69.69 0 01-.013.019c-.437.601-1.14.897-2.144.897H2.618c-.857 0-1.489-.215-1.932-.652-.447-.447-.666-1.082-.666-1.946V5.625c0-1.7.898-2.598 2.598-2.598h5.285zm13.095 4.625h-5.28c-.815 0-1.004.26-1.074.376l1.413 1.056a.68.68 0 01.28.545c0 .211-.105.41-.283.544l-1.698 1.264c.068.104.108.23.108.363v1.287h.5a.811.811 0 01.878.81l.003 1.607a.814.814 0 01-.198.602.779.779 0 01-.625.265l-.569.003a.67.67 0 01.01.118v2.266c0 .938.317 1.254 1.255 1.254h5.284c.477 0 .806-.091.985-.27.178-.177.265-.507.265-.984V8.906c0-.961-.292-1.254-1.254-1.254zM18.36 18.23c.356 0 .585.188.585.588 0 .192-.054.337-.148.434-.101.104-.252.155-.437.155s-.336-.05-.437-.155c-.094-.097-.148-.239-.148-.434 0-.403.232-.588.585-.588zM7.903 4.371H2.618c-.477 0-.806.091-.984.27-.179.177-.266.507-.266.984v9.852c0 .962.293 1.254 1.254 1.254h5.284c.807 0 .991-.255 1.052-.34l.03-.036-1.418-1.056a.679.679 0 01-.283-.544c0-.212.101-.414.28-.545l1.728-1.293a.668.668 0 01-.139-.408v-1.264l-.554-.003h-.037a.787.787 0 01-.589-.269.814.814 0 01-.198-.602l.004-1.606a.806.806 0 01.231-.572.785.785 0 01.646-.238l.497-.001V5.625c0-.938-.316-1.254-1.253-1.254zm2.732 8.8l-2.114 1.584 2.171 1.616.004-.255c.007-.4.336-.73.736-.733l3.402-.017-.004-1.27-3.462-.004a.735.735 0 01-.736-.746l.003-.175zm-5.374 1.792c.356 0 .584.188.584.588 0 .192-.053.336-.148.434-.1.104-.252.154-.436.154-.185 0-.337-.05-.437-.154-.095-.098-.148-.239-.148-.434 0-.4.232-.588.585-.588zm5.24-3.712v.762l.168-.126a.66.66 0 01.397-.137c.158 0 .305.06.413.171a.641.641 0 01.178.47l-.01.693h1.472v-.728l-.191.143a.662.662 0 01-.394.135c-.336 0-.595-.273-.598-.629l-.013-.746-1.423-.008zm2.487-3.209l.004.175a.736.736 0 01-.737.746l-3.462.003-.006 1.271 3.401.017a.748.748 0 01.74.736l.003.252 2.172-1.617-2.115-1.583z" fill="#5CB615" fill-rule="nonzero"/></svg>
